X:15373
T:Shoe the Donkey
R:mazurka
H:See also #8
D:Mairead Ni Mhaonaigh & Frankie Kennedy: Ceol Aduaidh
Z:id:hn-mazurka-12
M:3/4
K:G
d^c|d2 B2 d^c|d2 B2 d^c|d2 e2 d2|=c4 cB|
c2 A2 cB|c2 A2 cB|c2 e2 d2|1 B4:|2 G3A BA||
|:G2 B2 d2|g3g ag|f2 e2 d2|A3 BAG|
F2 G2 A2|f4 fe|1 d2 c2 A2|B3 cBA:|2 d2 e2 f2|g4||


